svgs/sharp-light/cup-straw.svg

<svg xmlns="http://www.w3.org/2000/svg" viewBox="0 0 384 512"><!--! Font Awesome Pro 6.6.0 by @fontawesome - https://fontawesome.com License - https://fontawesome.com/license (Commercial License) Copyright 2024 Fonticons, Inc. --><path d="M211.5 0L224 0l48 0 16 0 0 32-16 0-35.5 0-24 96L368 128l16 0 0 32-16 0L16 160 0 160l0-32 16 0 163.5 0 29-115.9 3-12.1zM64 512L37.3 192l32.1 0 24 288 197.1 0 24-288 32.1 0L320 512 64 512z"/></svg>

<svg xmlns="http://www.w3.org/2000/svg" viewBox="0 0 384 512"><!--! Font Awesome Pro 6.4.0 by @fontawesome - https://fontawesome.com License - https://fontawesome.com/license (Commercial License) Copyright 2023 Fonticons, Inc. --><path d="M211.5 0H224h48 16V32H272 236.5l-24 96H368h16v32H368 16 0V128H16 179.5l29-115.9 3-12.1zM64 512L37.3 192H69.4l24 288H290.6l24-288h32.1L320 512H64z"/></svg>
